dist/svgs/crypto-icons/icons/usdt.svg

<?xml version="1.0" encoding="UTF-8" standalone="yes"?>
<svg xmlns="http://www.w3.org/2000/svg" xmlns:xlink="http://www.w3.org/1999/xlink" width="512px" height="512px" viewBox="0 0 384 384" version="1.1">
  <g id="surface1">
    <path style=" stroke:none;fill-rule:nonzero;fill:rgb(0%,0%,0%);fill-opacity:1;" d="M 383.800781 182.121094 C 383.800781 158.023438 318.234375 137.917969 231.097656 133.28125 L 231.09375 94.886719 L 339.890625 94.886719 L 339.890625 14.980469 L 42.390625 14.980469 L 42.390625 94.886719 L 151.179688 94.886719 L 151.179688 133.46875 C 65.632812 138.425781 1.640625 158.320312 1.640625 182.121094 C 1.640625 205.925781 65.632812 225.824219 151.179688 230.769531 L 151.179688 368.644531 L 231.09375 368.644531 L 231.09375 230.957031 C 318.234375 226.328125 383.800781 206.21875 383.800781 182.121094 Z M 192.71875 205.859375 C 99.195312 205.859375 23.375 191.382812 23.375 173.515625 C 23.375 158.390625 77.742188 145.6875 151.179688 142.15625 L 151.179688 151.261719 L 151.1875 151.261719 L 151.1875 188.574219 C 164.429688 189.320312 178.34375 189.707031 192.71875 189.707031 C 205.957031 189.707031 218.8125 189.371094 231.101562 188.753906 L 231.101562 142.015625 C 306.132812 145.332031 362.070312 158.167969 362.070312 173.515625 C 362.070312 191.382812 286.246094 205.859375 192.71875 205.859375 Z M 192.71875 205.859375 "/>
  </g>
</svg>

<svg xmlns="http://www.w3.org/2000/svg" viewBox="0 0 384 384"><path d="M383.8 182.121c0-24.098-65.566-44.203-152.702-48.84l-.004-38.394H339.89V14.98H42.39v79.907h108.79v38.582C65.633 138.426 1.64 158.32 1.64 182.12c0 23.805 63.993 43.703 149.54 48.649v137.875h79.914V230.957c87.14-4.629 152.707-24.738 152.707-48.836zM192.72 205.86c-93.524 0-169.344-14.476-169.344-32.343 0-15.125 54.367-27.828 127.805-31.36v9.106h.007v37.312c13.243.746 27.157 1.133 41.532 1.133a767.22 767.22 0 0038.383-.953v-46.738c75.03 3.316 130.968 16.152 130.968 31.5 0 17.867-75.824 32.343-169.351 32.343zm0 0"/></svg>
